X: 1
T: Freddie's Reel #1   [Em]
C: by John Martin
N: in honour of Freddie Thompson.
R: reel
S: https://thesession.org/tunes/9398
Z: 2020 edited by John Chambers <jc:trillian.mit.edu>
M: C|
L: 1/8
K: Edor
|:\
B,EEG FEB,E | GEBE AGFE | Dd~dc dAFD | EB,EF GFED |
B,EEG FE=CE | GEBE AGFE | Dd~dc dAFD | G/F/EFD B,EE2 :|
|:\
eB (3BBB efga | bd'af gfeg | fdAG FGAc | dAeA fedf |
eB (3BBB efga | bd'af gfec | dBAF DEFA | G/F/EFD B,EE2 :|
